public/assets/images/syInfra.svg

<svg width="78" height="78" viewBox="0 0 78 78" fill="none" xmlns="http://www.w3.org/2000/svg">
<g clip-path="url(#clip0_705_302)">
<rect width="77.7666" height="77.7666" fill="#03377C"/>
<path d="M3.88275 3.81261C3.88275 6.13749 4.50613 8.21103 5.7529 10.0332C7.06893 11.7926 8.66201 13.332 10.5322 14.6516C12.4023 15.9083 14.9651 17.4791 18.2205 19.3641C21.753 21.3748 24.5236 23.1028 26.5323 24.548C28.6102 25.9932 30.3765 27.784 31.8311 29.9203C33.2856 31.9939 34.0129 34.4444 34.0129 37.272C34.0129 40.4765 33.0778 43.3355 31.2077 45.8489C29.4068 48.3623 26.8094 50.3415 23.4154 51.7867C20.0907 53.1691 16.2811 53.8603 11.9867 53.8603C9.0776 53.8603 6.06459 53.5147 2.94768 52.8235C-0.0999708 52.1323 -2.42034 51.2841 -4.01343 50.2787C-4.63681 49.9017 -4.98313 49.3048 -5.0524 48.4879L-5.67578 34.2559V34.1617C-5.67578 33.9103 -5.50262 33.7847 -5.1563 33.7847C-4.80997 33.7218 -4.60218 33.8161 -4.53291 34.0674C-2.24718 39.2198 0.350249 43.4612 3.25937 46.7914C6.23775 50.1216 9.97804 51.7867 14.4802 51.7867C17.5279 51.7867 20.0561 51.0641 22.0647 49.619C24.0734 48.1109 25.0778 45.629 25.0778 42.1731C25.0778 39.4084 24.3851 36.9892 22.9998 34.9157C21.6838 32.8421 20.0214 31.1142 18.0128 29.7318C16.0733 28.3495 13.4066 26.653 10.0127 24.6422C6.68797 22.6944 4.09054 21.0607 2.2204 19.7412C0.350249 18.3588 -1.24284 16.6937 -2.55887 14.7458C-3.8749 12.7351 -4.53291 10.4102 -4.53291 7.77118C-4.53291 4.50379 -3.52857 1.73907 -1.5199 -0.522968C0.488779 -2.78501 3.0862 -4.45012 6.27238 -5.51831C9.52782 -6.64933 12.9218 -7.21484 16.4543 -7.21484C18.74 -7.21484 21.0604 -6.99492 23.4154 -6.55508C25.7704 -6.17807 27.7791 -5.6754 29.4414 -5.04705C30.4804 -4.67005 30.9999 -4.07312 30.9999 -3.25627L31.2077 9.46772C31.2077 9.71905 31.0345 9.87614 30.6882 9.93897C30.4111 10.0018 30.2033 9.93898 30.0648 9.75047C28.6795 5.91757 26.8094 2.46167 24.4544 -0.617223C22.1686 -3.75895 18.7054 -5.32981 14.0647 -5.32981C10.9478 -5.32981 8.45422 -4.48154 6.58407 -2.78501C4.78319 -1.15131 3.88275 1.04789 3.88275 3.81261Z" fill="#FEF5E3"/>
<path d="M75.8466 5.83911C77.3487 3.26289 78.0997 1.03227 78.0997 -0.852764C78.0997 -3.61748 76.4474 -4.99984 73.1428 -4.99984C73.0226 -4.99984 72.9625 -5.18835 72.9625 -5.56535C72.9625 -5.94236 73.0226 -6.13086 73.1428 -6.13086L77.8294 -6.03661C80.3529 -5.91094 82.6662 -5.84811 84.7692 -5.84811C85.7906 -5.84811 87.0223 -5.91094 88.4644 -6.03661L91.7991 -6.13086C91.9193 -6.13086 91.9793 -5.94236 91.9793 -5.56535C91.9793 -5.18835 91.9193 -4.99984 91.7991 -4.99984C89.8163 -4.99984 87.5631 -3.90024 85.0395 -1.70103C82.516 0.435341 80.2628 3.20006 78.28 6.59312L65.7523 27.7998L63.9498 26.2917L75.8466 5.83911ZM45.6539 3.85982C43.6111 0.529593 41.8386 -1.76387 40.3364 -3.02055C38.8944 -4.34008 37.4824 -4.99984 36.1005 -4.99984C35.9202 -4.99984 35.8301 -5.18835 35.8301 -5.56535C35.8301 -5.94236 35.9202 -6.13086 36.1005 -6.13086L39.0747 -6.03661C40.3965 -5.91094 41.3579 -5.84811 41.9587 -5.84811C43.9415 -5.84811 46.7956 -5.91094 50.5208 -6.03661L56.1988 -6.13086C56.319 -6.13086 56.3791 -5.94236 56.3791 -5.56535C56.3791 -5.18835 56.319 -4.99984 56.1988 -4.99984C53.6753 -4.99984 52.4135 -4.15158 52.4135 -2.45504C52.4135 -1.70103 52.804 -0.664259 53.5851 0.655263L67.3746 22.8044L60.1644 27.0458L45.6539 3.85982ZM68.0055 22.7102V45.1421C68.0055 47.09 68.1557 48.5037 68.4561 49.3834C68.7566 50.2631 69.3574 50.86 70.2587 51.1742C71.22 51.4884 72.7222 51.6455 74.765 51.6455C74.9453 51.6455 75.0354 51.834 75.0354 52.211C75.0354 52.588 74.9453 52.7765 74.765 52.7765C72.8423 52.7765 71.3402 52.7451 70.2587 52.6822L63.6794 52.588L57.1902 52.6822C55.9885 52.7451 54.3963 52.7765 52.4135 52.7765C52.2933 52.7765 52.2332 52.588 52.2332 52.211C52.2332 51.834 52.2933 51.6455 52.4135 51.6455C54.4564 51.6455 55.9585 51.4884 56.9198 51.1742C57.8812 50.86 58.5421 50.2631 58.9027 49.3834C59.2632 48.4409 59.4434 47.0271 59.4434 45.1421V23.5584L68.0055 22.7102Z" fill="#FEF5E3"/>
<path d="M18.8993 62.6149V68.7695H17.9707V62.6149H18.8993ZM29.8737 62.6149V68.7695H29.0202L25.8918 64.2557H25.8347V68.7695H24.9061V62.6149H25.7656L28.897 67.1347H28.9541V62.6149H29.8737ZM35.8827 68.7695V62.6149H39.6993V63.4143H36.8113V65.2895H39.4258V66.0859H36.8113V68.7695H35.8827ZM45.4957 68.7695V62.6149H47.6895C48.1663 62.6149 48.562 62.697 48.8766 62.8613C49.1931 63.0256 49.4295 63.253 49.5858 63.5435C49.7421 63.832 49.8202 64.1656 49.8202 64.5442C49.8202 64.9209 49.7411 65.2525 49.5828 65.5389C49.4265 65.8234 49.1901 66.0448 48.8736 66.2031C48.559 66.3614 48.1633 66.4405 47.6865 66.4405H46.0246V65.6411H47.6024C47.9029 65.6411 48.1473 65.598 48.3356 65.5119C48.526 65.4257 48.6652 65.3005 48.7534 65.1362C48.8415 64.972 48.8856 64.7746 48.8856 64.5442C48.8856 64.3118 48.8405 64.1105 48.7503 63.9402C48.6622 63.7699 48.523 63.6397 48.3326 63.5495C48.1443 63.4573 47.8969 63.4113 47.5903 63.4113H46.4243V68.7695H45.4957ZM48.534 65.9927L50.0546 68.7695H48.9968L47.5062 65.9927H48.534ZM56.1245 68.7695H55.1388L57.3536 62.6149H58.4265L60.6413 68.7695H59.6556L57.9156 63.7328H57.8675L56.1245 68.7695ZM56.2898 66.3594H59.4873V67.1407H56.2898V66.3594Z" fill="#FEF5E3"/>
</g>
<defs>
<clipPath id="clip0_705_302">
<rect width="77.7666" height="77.7666" fill="white"/>
</clipPath>
</defs>
</svg>

<svg xmlns="http://www.w3.org/2000/svg" width="78" height="78" fill="none" viewBox="0 0 78 78"><g clip-path="url(#a)"><path fill="#03377c" d="M0 0h77.767v77.767H0z"/><path fill="#fef5e3" d="M3.883 3.813q0 3.486 1.87 6.22a21.1 21.1 0 0 0 4.78 4.619q2.805 1.884 7.688 4.712 5.299 3.016 8.311 5.184a20.6 20.6 0 0 1 5.3 5.372q2.18 3.11 2.18 7.352 0 4.807-2.804 8.577-2.702 3.77-7.793 5.938-4.987 2.073-11.428 2.073-4.364 0-9.04-1.036-4.57-1.038-6.96-2.545-.936-.566-1.04-1.791l-.623-14.232v-.094q0-.378.52-.377.52-.094.623.282 3.429 7.73 7.792 12.724 4.468 4.996 11.221 4.996 4.572 0 7.585-2.168 3.012-2.262 3.013-7.446 0-4.148-2.078-7.257a17.8 17.8 0 0 0-4.987-5.184q-2.91-2.074-8-5.09-4.987-2.922-7.793-4.9a20.3 20.3 0 0 1-4.779-4.996Q-4.533 11.73-4.533 7.77q0-4.9 3.013-8.294 3.013-3.393 7.792-4.995 4.884-1.697 10.182-1.697 3.429 0 6.961.66 3.533.566 6.026 1.508 1.56.566 1.559 1.79l.208 12.725q0 .377-.52.471-.416.095-.623-.189-2.079-5.748-5.61-10.367-3.43-4.713-10.39-4.713-4.675 0-7.48 2.545-2.702 2.45-2.702 6.598M75.847 5.84Q78.1 1.974 78.1-.854 78.1-5 73.143-5q-.18 0-.18-.565 0-.566.18-.566l4.686.094q3.786.189 6.94.189 1.532 0 3.695-.189L91.8-6.13q.18 0 .18.566 0 .565-.18.565-2.974 0-6.76 3.299-3.785 3.204-6.759 8.294L65.752 27.8l-1.802-1.508zM45.654 3.86q-3.064-4.995-5.318-6.88Q38.173-5 36.1-5q-.27 0-.27-.565 0-.566.27-.566l2.975.094q1.983.189 2.884.189 2.974 0 8.562-.189l5.678-.094q.18 0 .18.566 0 .565-.18.565-3.786 0-3.785 2.545 0 1.13 1.171 3.11l13.79 22.15-7.21 4.24zm22.351 18.85v22.432q0 2.922.451 4.241.45 1.32 1.803 1.791 1.441.471 4.506.471.27 0 .27.566t-.27.566q-2.884 0-4.506-.095l-6.58-.094-6.489.094q-1.802.094-4.776.094-.18 0-.18-.565 0-.566.18-.566 3.063 0 4.506-.47 1.441-.472 1.983-1.792.54-1.413.54-4.24V23.557zM18.9 62.615v6.154h-.93v-6.154zm10.974 0v6.154h-.854l-3.128-4.513h-.057v4.513h-.929v-6.154h.86l3.131 4.52h.057v-4.52zm6.009 6.154v-6.154h3.816v.8h-2.888v1.875h2.615v.796H36.81v2.683zm9.613 0v-6.154h2.194q.714 0 1.187.246.474.247.709.683.234.433.234 1 0 .566-.237.995a1.6 1.6 0 0 1-.71.664q-.471.237-1.186.237h-1.662v-.799h1.577q.45 0 .734-.13a.86.86 0 0 0 .417-.375q.133-.246.133-.592 0-.348-.136-.604a.87.87 0 0 0-.417-.39q-.283-.14-.743-.139h-1.166v5.358zm3.038-2.776 1.52 2.776h-1.057l-1.49-2.776zm7.59 2.776h-.985l2.215-6.154h1.072l2.215 6.154h-.985l-1.74-5.036h-.048zm.166-2.41h3.197v.782H56.29z"/></g><defs><clipPath id="a"><path fill="#fff" d="M0 0h77.767v77.767H0z"/></clipPath></defs></svg>
